!!!COM: Schiørring, Niels
!!!CDT: 1743-1798
!!!OPR@@DA: Choral-Bog
!!!ONM: 72
!!!OTL@@DA: Nu bede vi den Hillig Aand
**kern	**fb	**kern	**kern	**kern	**kern	**kern	**kern	**kern
*part6	*part6	*part6	*part5	*part5	*part4	*part3	*part2	*part1
*staff8	*	*staff7	*staff6	*staff5	*staff4	*staff3	*staff2	*staff1
*clefF4	*	*clefC1	*clefF4	*clefC1	*clefF4	*clefC4	*clefC3	*clefC1
*mclefF4	*	*mclefG2	*mclefF4	*mclefG2	*mclefF4	*mclefGv2	*mclefG2	*mclefG2
*k[f#]	*	*k[f#]	*k[f#]	*k[f#]	*k[f#]	*k[f#]	*k[f#]	*k[f#]
*G:	*	*G:	*G:	*G:	*G:	*G:	*G:	*G:
*M4/4	*	*M4/4	*M4/4	*M4/4	*M4/4	*M4/4	*M4/4	*M4/4
*met(c)	*	*met(c)	*met(c)	*met(c)	*met(c)	*met(c)	*met(c)	*met(c)
*MM180	*	*MM180	*MM180	*MM180	*MM180	*MM180	*MM180	*MM180
*	*above	*	*	*	*	*	*	*
*	*slash	*	*	*	*	*	*	*
*	*	*	*^	*^	*	*	*	*
=1	=1	=1	=1	=1	=1	=1	=1	=1	=1	=1
2G	.	2g	2B	2G	2g	2d	2G	2B	2d	2g
=2	=2	=2	=2	=2	=2	=2	=2	=2	=2	=2
2F#	6	2a	2A	2F#	2a	2d	2F#	2A	2d	2a
2D	7	2a	2F#	2D	2a	2c	2D	2F#	2c	2a
=3	=3	=3	=3	=3	=3	=3	=3	=3	=3	=3
2E	.	2g	2G	2E	2g	2B	2E	2G	2B	2g
2C	.	2e	2G	2C	2e	2c	2C	2G	2c	2e
=4	=4	=4	=4	=4	=4	=4	=4	=4	=4	=4
2BB	6	2d	2G	2BB	2d	2d	2BB	2G	2d	2d
2AA	6	2f#m	2A	2AA	2f#m	2c	2AA	2AM	2c	2f#m
=5	=5	=5	=5	=5	=5	=5	=5	=5	=5	=5
2GG;	.	2g;	2B>	2GG;	2g;	2d	2GG;	2B;	2d;	2g;
2G	.	2g	2B>	2G	2g	2d	2G	2B	2d	2g
=6	=6	=6	=6	=6	=6	=6	=6	=6	=6	=6
2E	.	2b	2e>	2E	2b	2g	2E	2B	2g	2b
2D	6 n	2dd	2fn>	2D	2dd	2b	2D	2B	2fn	2dd
=7	=7	=7	=7	=7	=7	=7	=7	=7	=7	=7
2C	.	2ee	2g>	2C	2ee	2cc	2C	2c	2g	2ee
2D	.	2dd	2f#Xi>	2D	2dd	2a	2D	2A	2f#Xi	2dd
=8	=8	=8	=8	=8	=8	=8	=8	=8	=8	=8
2GG	.	2b	2d>	2GG	2b	2g	2GG	2d	2g	2b
4AA	.	2a	2c>	4AA	2a	2e	(4AA	2c	2e	2a
4BB	.	.	.	4BB	.	.	4BB)	.	.	.
=9	=9	=9	=9	=9	=9	=9	=9	=9	=9	=9
4C	6	2e	2A	4C	2e	2e	(4C	2A	2e	2e
4BB	.	.	.	4BB	.	.	4BB)	.	.	.
2AA	6	2f#m	2A	2AA	2f#m	[2c	2AA	[2c	2c	2f#m
=10	=10	=10	=10	=10	=10	=10	=10	=10	=10	=10
1GG;	4	1g;	1D;	1GG	1g;	2c]	1GG;	(2c]	1d;	1g;
.	3	.	.	.	.	2B	.	2B)	.	.
=11	=11	=11	=11	=11	=11	=11	=11	=11	=11	=11
*	*	*	*	*	*	*^	*	*	*	*
2G	.	2b	2G	2G	2b	2d	2B\	2G	2d	2g	2b
2E	.	2b	2G	2E	2b	2e	2B\	2E	2e	2g	2b
=12	=12	=12	=12	=12	=12	=12	=12	=12	=12	=12	=12
2BB	6	2b	2G	2BB	2b	2g	2d\	2BB	2d	2g	2b
*	*	*	*	*	*	*v	*v	*	*	*	*
2D	.	2a	2d>	2D	2a	2f#	2D	2d	2f#	2a
=13	=13	=13	=13	=13	=13	=13	=13	=13	=13	=13
1GG	8	1b	1d>	1GG	1b	2g	1GG	1d	(2g	1b
.	n7	.	.	.	.	[2fn	.	.	[2fn)	.
=14	=14	=14	=14	=14	=14	=14	=14	=14	=14	=14
1C;	nr4	1g;	1c>	1C;	1g	2f]	1C;	1c;	2f]	1g;
.	3	.	.	.	.	2e;	.	.	2e;	.
=15	=15	=15	=15	=15	=15	=15	=15	=15	=15	=15
2C	6	2a	2A	2C	2a	2e	2C	2A	2e	2a
2C#X	5	2a	2G	2C#X	2a	2e	2C#X	2e	2g	2a
=16	=16	=16	=16	=16	=16	=16	=16	=16	=16	=16
2D	.	2a	2F#	2D	2a	2d	2D	2d	2f#	2a
2GG	.	2b	[2G	2GG	2b	2d	2GG	2d	[2g	2b
=17	=17	=17	=17	=17	=17	=17	=17	=17	=17	=17
2C	6 5	1aM	2G]	2C	1aM	2e	(2C	(2e	(2g]	1aM
2D	.	.	4F#	2D	.	2d	2D)	2d)	2f#)	.
.	.	.	4c	.	.	.	.	.	.	.
=18	=18	=18	=18	=18	=18	=18	=18	=18	=18	=18
1GG;	.	1g;	1B;	1G	1g;	1d	1GG;	1B;	1g;	1g;
=19	=19	=19	=19	=19	=19	=19	=19	=19	=19	=19
*	*	*	*	*	*	*^	*	*	*	*
2F#	6	2a	2A	2F#	2a	2f#	2d\	2F#	2A	2d	2a
*	*	*	*	*	*	*v	*v	*	*	*	*
2E	2	2a	2c	2E	2a	2f#	2E	2c	2f#	2a
=20	=20	=20	=20	=20	=20	=20	=20	=20	=20	=20
2D#X	6	2b	1B	2D#X	2b	2f#	2D#X	2B	2f#	2b
2BB	7 #	2a	.	2BB	2a	2d#X	2BB	2B	2d#X	2a
=21	=21	=21	=21	=21	=21	=21	=21	=21	=21	=21
2E	.	1g	2B	2E	1g	2e	(2E	(2B	(2e	1g
2BB	6	.	2G	2BB	.	2dni	2BB)	2G)	2dni)	.
=22	=22	=22	=22	=22	=22	=22	=22	=22	=22	=22
2C;	.	2e;	2G;	2C	2e;	2c	2C;	2G;	2c;	2e;
2A	6	2f#	2A	2A	2f#	2c	2A	2c	2c	2f#
=23	=23	=23	=23	=23	=23	=23	=23	=23	=23	=23
2G	.	2g	2B	2G	2g	2d	2G	2B	2d	2g
2D#X	5	2a	2B	2D#X	2a	2f#	2D#X	2B	2f#	2a
=24	=24	=24	=24	=24	=24	=24	=24	=24	=24	=24
1E;	.	2g	2B	2E	2g	2e	2E	2B	2e	2g
.	.	2e;	2G;	2E	2e;	2B	2E;	2G;	2B;	2e;
=25	=25	=25	=25	=25	=25	=25	=25	=25	=25	=25
2BB	5	2d	4F#	2BB	2d	2d	2BB	(4F#	2d	2d
.	6	.	2G	.	.	.	.	2G)	.	.
4C	.	4e	.	4C	4e	2c	(4C	.	2c	4e
4AA	6	4f#	4A	4AA	4f#	.	4AA)	4A	.	4f#
=26	=26	=26	=26	=26	=26	=26	=26	=26	=26	=26
4BB	6	2g	2G	4BB	2g	1d	((4BB	(2G	1d	(2g
4FF#	.	.	.	4FF#	.	.	4FF#)	.	.	.
2D	.	2aM	2F#	2D	2aM	.	2D)	2F#)	.	2a)
=27	=27	=27	=27	=27	=27	=27	=27	=27	=27	=27
*	*	*	*	*	*	*^	*	*	*	*
2GG;	.	2g;	2G;	2GG	2g;	2d	2B\	2GG;	2G;	2B;	2g;
*	*	*	*v	*v	*	*	*	*	*	*	*
*	*	*	*	*v	*v	*v	*	*	*	*
==	==	==	==	==	==	==	==	==
*-	*-	*-	*-	*-	*-	*-	*-	*-
!!!system-decoration: {(s1,s2,s3,s4)}{(s5,s6)}{(s7,s8)}
!!!RDF**kern: i = editorial accidental, paren
!!!RDF**kern: > = above
!!!RDF**kern: < = below
!!!AGN: chorale
!!!EED: Derek Remeš
!!!EED2: Victor Phan
!!!END: 2023/11/28
!!!ENC: Wolfgang Drescher
!!!EEV: 2024/01/09
!!!title: @{ONM}. @{OTL}
!!!verovio: mnumInterval 1